X:277
M:4/4
L:1/4
K:D
F B c d | e d c B | A B B c | A B3 | F B c d | e d c B | A B B c | A B3 | B f f c | d e3/2 d/ c | c d c B | B c3/2 B/ (B | A2) z2 | !sintro!F B B2 | A G F2 | B2 A F | B2 B c | d e f F | B2 z2 !eintro!|] This hymn was written by Fr. Jean de Br�beuf, a French missionary to the Huron (first nations / native American) people.  He was eventually martyred for the faith by Iroquois during the Iroquois-Huron wars. "When the Japanese have a Christmas devotional booklet, Mary is a Japanese woman, and her Child is a Japanese boy.  With that, they are confessing that He was born for them too.  For that was the message of the angel, that He was born to be the Savior for all people, and all people means one of us ... and so whether it is in Papau New Guinea or Japan or among the Eskimos, when they think of the birth of the Savior they see Him as born one of them." - Dr. Norman Nagel, 22 Dec 2005
